{"compressionlevel":-1,"infinite":false,"orientation":"orthogonal","renderorder":"right-down","width":34,"height":22,"tilewidth":16,"tileheight":16,"nextlayerid":99,"nextobjectid":30,"version":"1.10","tiledversion":"1.10.2","type":"map","tilesets":[{"columns":16,"firstgid":1,"image":"../tilesets/office-tileset.png","imageheight":512,"imagewidth":256,"margin":0,"name":"office-tileset","spacing":0,"tilecount":512,"tileheight":16,"tilewidth":16},{"firstgid":513,"source":"A5 Office Floors & Walls.tsx"},{"firstgid":1025,"source":"interiors.tsx"}],"layers":[{"id":1,"name":"floor","type":"tilelayer","data":[0,0,0,0,0,0,0,0,0,0,0,0,0,0,0,0,0,0,0,0,0,0,0,0,0,0,0,0,0,0,0,0,0,0,0,0,0,0,0,0,0,0,0,0,0,0,0,0,0,0,0,0,0,0,0,0,0,0,0,0,0,0,0,0,0,0,0,0,0,0,0,0,0,0,0,0,0,0,0,0,0,0,0,0,0,0,0,0,0,0,0,0,0,0,0,0,0,0,0,0,0,0,0,783,784,783,784,783,784,783,784,783,784,783,784,783,784,783,784,783,784,783,784,783,784,783,784,783,784,783,784,783,784,783,784,0,0,799,800,799,800,799,800,799,800,799,800,799,800,799,800,799,800,799,800,799,800,799,800,799,800,799,800,799,800,799,800,799,800,0,0,783,784,783,784,783,784,783,784,783,784,783,784,783,784,783,784,783,784,783,784,783,784,783,784,783,784,783,784,783,784,783,784,0,0,799,800,799,800,799,800,799,800,799,800,799,800,799,800,799,800,799,800,799,800,799,800,799,800,799,800,799,800,799,800,799,800,0,0,783,784,783,784,783,784,783,784,783,784,783,784,783,784,783,784,783,784,783,784,783,784,783,784,783,784,783,784,783,784,783,784,0,0,799,800,799,800,799,800,799,800,799,800,799,800,799,800,799,800,799,800,799,800,799,800,799,800,799,800,799,800,799,800,799,800,0,0,783,784,783,784,783,784,783,784,783,784,783,784,783,784,783,784,783,784,783,784,783,784,783,784,783,784,783,784,783,784,783,784,0,0,799,800,799,800,799,800,799,800,799,800,799,800,799,800,799,800,799,800,799,800,799,800,799,800,799,800,799,800,799,800,799,800,0,0,783,784,783,784,783,784,783,784,783,784,783,784,783,784,783,784,783,784,783,784,783,784,783,784,783,784,783,784,783,784,783,784,0,0,799,800,799,800,799,800,799,800,799,800,799,800,799,800,799,800,799,800,799,800,799,800,799,800,799,800,799,800,799,800,799,800,0,0,783,784,783,784,783,784,783,784,783,784,783,784,783,784,783,784,783,784,783,784,783,784,783,784,783,784,783,784,783,784,783,784,0,0,799,800,799,800,799,800,799,800,799,800,799,800,799,800,799,800,799,800,799,800,799,800,799,800,799,800,1698,1699,799,800,799,800,0,0,783,784,783,784,783,784,783,784,783,784,783,784,783,784,783,784,783,784,783,784,783,784,783,784,783,784,1714,1715,783,784,783,784,0,0,799,800,799,800,799,800,799,800,799,800,799,800,799,800,799,800,799,800,799,800,799,800,799,800,799,800,799,800,799,800,799,800,0,0,783,784,783,784,783,784,783,784,783,784,783,784,783,784,783,784,783,784,783,784,783,784,783,784,783,784,783,784,783,784,783,784,0,0,799,800,799,800,799,800,799,800,799,800,799,800,799,800,799,800,799,800,799,800,799,800,799,800,799,800,799,800,799,800,799,800,0,0,783,784,783,784,783,784,783,784,783,784,783,784,783,784,783,784,783,784,783,784,783,784,783,784,783,784,783,784,783,784,783,784,0,0,799,800,799,800,799,800,799,800,799,800,799,800,799,800,799,800,799,800,799,800,799,800,799,800,799,800,799,800,799,800,799,800,0,0,0,0,0,0,0,0,0,0,0,0,0,0,0,0,0,0,0,0,0,0,0,0,0,0,0,0,0,0,0,0,0,0,0],"width":34,"height":22,"x":0,"y":0,"opacity":1,"visible":true},{"id":2,"name":"walls","type":"tilelayer","data":[514,522,522,522,522,522,522,522,522,522,522,522,522,522,522,522,522,522,522,522,522,522,522,522,522,522,522,522,522,522,522,522,522,517,530,554,554,554,554,554,554,554,554,554,554,554,554,554,554,554,554,554,554,554,554,554,554,554,554,554,554,554,554,554,554,554,554,533,530,570,570,570,570,570,570,570,570,570,570,570,570,570,570,570,570,570,570,570,570,570,570,570,570,570,570,570,570,570,570,570,570,533,530,0,0,0,0,0,0,0,0,0,0,0,0,0,0,0,0,0,0,0,0,0,0,0,0,611,0,0,0,0,0,0,0,533,530,0,0,0,0,0,0,0,0,0,0,0,0,0,0,0,0,0,0,0,0,0,0,0,0,643,0,0,0,0,0,0,0,533,530,0,0,0,0,0,0,0,0,0,0,0,0,0,0,0,0,0,0,0,0,0,0,0,0,643,0,0,0,0,0,0,0,533,530,0,0,0,0,0,0,0,0,0,0,0,0,0,0,0,0,0,0,0,0,0,0,0,0,643,0,0,0,0,0,0,0,533,530,0,0,0,0,0,0,0,0,0,0,0,0,0,0,0,0,0,0,0,0,0,0,0,0,643,0,0,0,0,0,0,0,533,530,0,0,0,0,0,0,0,0,0,0,0,0,0,0,0,0,0,0,0,0,0,0,0,0,643,0,0,0,0,0,0,0,533,530,0,0,0,0,0,0,0,0,0,0,0,0,0,0,0,0,0,0,0,0,0,0,0,0,522,0,522,522,522,522,522,522,533,530,0,0,0,0,0,0,0,0,0,0,0,0,0,0,0,0,0,0,0,0,0,0,0,0,554,0,554,554,554,554,554,554,533,530,0,0,0,0,0,0,0,0,0,0,0,0,0,0,0,0,0,0,0,0,0,0,0,570,570,0,570,570,570,570,570,570,533,530,0,0,0,0,0,0,0,0,0,0,0,0,0,0,0,0,0,0,0,0,0,0,0,611,0,0,0,0,0,0,0,0,533,530,0,0,0,0,0,0,0,0,0,0,0,0,0,0,0,0,0,0,0,0,0,0,0,643,0,0,0,0,0,0,0,0,533,530,0,0,0,0,0,0,0,0,0,0,0,0,0,0,0,0,0,0,0,0,0,0,0,643,0,0,0,0,0,0,0,0,533,530,0,0,0,0,0,0,0,0,0,0,0,0,0,0,0,0,0,0,0,0,0,0,0,0,0,0,0,0,0,0,0,0,533,530,0,0,0,0,0,0,0,0,0,0,0,0,0,0,0,0,0,0,0,0,0,0,0,643,0,0,0,0,0,0,0,0,533,530,0,0,0,0,0,0,0,0,0,0,0,0,0,0,0,0,0,0,0,0,0,0,0,643,0,0,0,0,0,0,0,0,533,530,0,0,0,0,0,0,0,0,0,0,0,0,0,0,0,0,0,0,0,0,0,0,0,643,0,0,0,0,0,0,0,0,533,530,0,0,0,0,0,0,0,0,0,0,0,0,0,0,0,0,0,0,0,0,0,0,0,643,0,0,0,0,0,0,0,0,533,530,0,0,0,0,0,0,0,0,0,0,0,0,0,0,0,0,0,0,0,0,0,0,0,643,0,0,0,0,0,0,0,0,533,578,579,579,579,579,579,579,579,579,579,579,579,579,579,579,579,0,579,579,579,579,579,579,579,579,579,579,579,579,579,579,579,579,581],"width":34,"height":22,"x":0,"y":0,"opacity":1,"visible":true},{"id":3,"name":"furniture-below","type":"tilelayer","data":[0,0,0,0,0,0,0,0,0,0,0,0,0,0,0,0,0,0,0,0,0,0,0,0,0,0,0,0,0,0,0,0,0,0,0,0,0,0,0,0,0,0,0,0,0,0,0,0,0,0,0,0,0,0,0,0,0,0,0,0,0,0,0,0,0,0,266,0,0,0,0,0,0,0,0,0,0,0,0,0,0,0,0,0,0,0,0,0,0,0,0,0,0,0,0,0,0,0,0,281,282,0,0,0,0,0,0,0,0,0,0,0,0,0,0,0,0,0,0,0,0,0,0,0,0,0,0,0,0,0,0,0,0,297,298,0,0,0,0,0,0,2,3,4,0,2,3,4,0,2,3,4,0,2,3,4,0,2,3,4,0,0,2,3,4,2,3,4,0,0,0,0,0,0,0,0,289,0,0,0,289,0,0,0,289,0,0,0,289,0,0,0,289,0,0,0,0,289,0,0,289,0,0,0,0,0,0,0,0,0,305,0,0,0,305,0,0,0,305,0,0,0,305,0,0,0,305,0,0,0,0,305,0,0,305,0,0,0,0,0,0,0,0,0,0,0,0,0,0,0,0,0,0,0,0,0,0,0,0,0,0,0,0,0,0,0,0,0,0,0,0,0,0,0,0,0,0,0,0,0,0,0,0,0,0,0,0,0,0,0,0,0,0,0,0,0,0,0,0,0,0,0,0,0,0,0,0,0,0,0,0,0,0,0,0,0,0,0,0,0,0,0,0,0,0,0,0,0,0,0,0,0,0,0,0,0,0,0,0,0,0,0,0,0,0,0,0,0,0,0,257,257,257,257,0,0,0,0,0,0,0,0,0,0,0,0,0,0,0,0,0,0,0,0,0,0,0,0,0,0,0,0,0,1610612898,1610612914,2684354789,2684354789,1610612914,1610612930,260,0,0,0,0,0,0,0,0,0,0,0,0,0,0,1029,1026,1027,0,0,0,0,0,0,0,0,0,0,1610612897,1610612913,1610612965,1610612965,1610612913,1610612929,276,0,0,0,0,0,0,0,0,0,0,0,0,0,0,1041,1042,1043,0,0,0,0,0,0,0,0,0,0,0,274,274,274,274,0,0,0,0,0,0,0,0,0,0,0,0,0,0,0,0,1044,0,1061,0,0,0,0,0,0,0,0,0,0,0,0,0,0,0,0,0,0,0,0,0,0,0,0,0,0,0,0,305,305,0,1073,1074,1075,0,0,0,0,0,0,0,0,0,0,0,0,0,0,0,0,0,0,0,0,0,0,0,0,0,0,0,0,0,0,39,0,0,0,0,0,0,0,0,0,0,0,0,0,0,0,0,0,0,0,0,0,0,0,0,0,0,0,0,0,0,0,305,305,0,0,0,297,0,0,0,2,3,4,0,2,3,4,0,2,3,4,0,0,0,0,0,0,0,2,3,4,0,0,0,0,0,0,269,191,192,0,0,0,0,0,289,0,0,0,289,0,0,0,289,0,0,0,0,0,0,0,0,0,289,0,0,0,0,38,40,39,285,207,208,2248,0,0,0,0,305,0,0,0,305,0,0,0,305,0,0,0,0,0,0,0,0,0,305,0,0,0,0,54,56,55,301,223,224,2264,0,0,470,0,0,0,0,0,0,0,0,0,0,0,0,0,0,0,297,0,0,0,0,0,471,0,0,0,0,0,0,0,472,2280,0,0,0,0,0,0,0,0,0,0,0,0,0,0,0,0,0,0,0,0,0,0,0,0,0,0,0,0,0,0,0,0,0,0,0],"width":34,"height":22,"x":0,"y":0,"opacity":1,"visible":true},{"id":4,"name":"furniture-above","type":"tilelayer","data":[0,0,0,0,0,0,0,0,0,0,0,0,0,0,0,0,0,0,0,0,0,0,0,0,0,0,0,0,0,0,0,0,0,0,0,0,0,0,0,0,0,0,0,0,0,0,0,0,0,0,0,0,0,0,0,0,0,0,0,0,0,0,0,0,0,0,0,0,0,370,343,344,0,0,0,0,343,344,0,0,0,0,0,0,0,0,0,0,343,344,0,0,0,0,0,0,0,0,0,0,0,0,0,0,0,0,0,0,365,366,0,0,365,366,0,0,365,366,0,0,365,366,0,0,365,366,0,0,0,365,366,0,365,366,0,0,0,0,0,0,0,0,381,382,0,0,381,382,0,0,381,382,0,0,381,382,0,0,381,382,0,0,0,381,382,0,381,382,0,0,0,0,0,0,0,18,19,20,0,18,19,20,0,18,19,20,0,18,19,20,0,18,19,20,0,0,18,19,20,18,19,20,0,0,0,0,0,0,0,0,0,0,0,0,0,0,0,0,0,0,0,0,0,0,0,0,0,0,0,0,0,0,0,0,0,0,0,0,0,0,0,0,0,0,0,0,0,0,0,0,0,0,0,0,0,0,0,0,0,0,0,0,0,0,0,0,0,0,0,0,0,0,0,0,0,0,0,0,0,0,0,0,0,0,0,0,0,0,0,0,0,0,0,0,0,0,0,0,0,0,0,0,0,0,0,0,0,0,0,0,0,0,0,0,0,0,0,0,0,0,0,0,0,0,0,0,0,0,0,0,0,0,0,0,0,0,0,0,0,0,0,0,0,0,0,0,0,0,0,0,0,0,0,0,0,0,0,0,0,0,0,0,0,0,0,0,0,0,0,0,0,0,0,0,0,0,0,0,0,0,0,0,0,451,0,0,0,0,395,0,0,0,0,0,0,0,0,0,0,0,0,0,0,0,0,0,0,0,0,0,0,0,0,0,0,0,0,467,258,258,258,258,411,0,0,0,0,0,0,0,0,0,0,0,0,0,0,0,0,0,0,0,0,0,0,0,0,0,0,0,0,0,0,0,0,0,0,0,0,0,0,0,0,0,0,0,0,0,0,0,0,0,0,1610613812,0,0,0,0,0,0,0,0,0,0,0,0,0,0,0,0,0,0,0,0,0,0,0,0,0,0,0,0,0,0,0,0,0,0,0,0,0,0,0,0,0,0,0,0,0,0,0,0,0,0,0,0,0,0,0,0,0,0,0,0,0,0,0,1650,1650,0,0,0,281,0,0,0,0,365,366,0,0,365,366,0,0,365,366,0,0,0,0,0,0,0,0,365,366,0,0,0,0,0,0,0,0,0,0,0,0,0,0,381,382,0,0,381,382,0,0,381,382,0,0,0,0,0,0,0,0,381,382,0,0,0,313,0,0,0,0,0,0,0,0,0,18,19,20,0,18,19,20,0,18,19,20,0,0,0,0,0,0,0,18,19,20,0,0,0,329,330,0,0,0,0,0,0,0,0,0,0,0,0,0,0,0,0,0,0,0,0,0,0,0,281,0,0,0,0,0,0,0,0,0,0,0,0,0,0,0,0,0,0,0,0,0,0,0,0,0,0,0,0,0,0,0,0,0,0,0,0,0,0,0,0,0,0,0,0,0,0,0,0,0,0,0,0,0,0,0,0,0,0,0,0,0,0,0,0,0,0,0,0,0,0,0,0,0,0,0,0,0,0,0,0,0,0,0,0],"width":34,"height":22,"x":0,"y":0,"opacity":1,"visible":true},{"id":5,"name":"collision","type":"tilelayer","data":[1,1,1,1,1,1,1,1,1,1,1,1,1,1,1,1,1,1,1,1,1,1,1,1,1,1,1,1,1,1,1,1,1,1,1,1,1,1,1,1,1,1,1,1,1,1,1,1,1,1,1,1,1,1,1,1,1,1,1,1,1,1,1,1,1,1,1,1,1,1,1,1,1,1,1,1,1,1,1,1,1,1,1,1,1,1,1,1,1,1,1,1,1,1,1,1,1,1,1,1,1,1,1,0,0,0,0,0,1,1,0,0,1,1,0,0,1,1,0,0,1,1,0,0,1,1,0,1,0,1,1,0,1,1,1,1,1,0,0,0,0,1,1,1,0,1,1,1,0,1,1,1,0,1,1,1,0,1,1,1,0,1,1,1,1,1,1,1,0,1,1,0,0,0,0,1,0,1,0,1,0,1,0,1,0,1,0,1,0,1,0,1,0,1,0,1,1,0,1,1,0,1,0,1,1,0,0,0,0,0,0,0,0,0,0,0,0,0,0,0,0,0,0,0,0,0,0,0,0,1,0,0,0,0,0,0,0,1,1,0,0,0,0,0,0,0,0,0,0,0,0,0,0,0,0,0,0,0,0,0,0,0,0,1,0,0,0,0,0,0,0,1,1,0,0,0,0,0,0,0,0,0,0,0,0,0,0,0,0,0,0,0,0,0,0,0,0,1,0,0,0,0,0,0,0,1,1,0,0,0,0,0,0,0,0,0,0,0,0,0,0,0,0,0,0,0,0,0,0,0,0,1,0,1,1,1,1,1,1,1,1,0,0,0,0,0,0,0,0,0,0,0,0,0,0,0,0,0,0,0,0,0,0,0,0,1,0,1,1,1,1,1,1,1,1,0,0,0,0,0,0,0,0,1,1,1,1,1,1,0,0,0,0,0,0,0,0,0,1,1,0,1,1,1,1,1,1,1,1,0,0,0,0,0,0,0,0,1,1,1,1,1,1,1,0,0,0,0,0,0,0,0,1,0,0,0,0,0,1,1,1,1,1,0,0,0,0,0,0,0,0,0,0,0,0,0,0,0,0,0,0,0,0,0,0,0,1,0,0,0,0,0,1,1,1,1,1,0,0,0,0,0,0,0,0,0,0,0,0,0,0,0,0,0,0,0,0,0,0,0,1,0,0,0,0,0,1,1,1,1,1,0,0,0,0,0,0,0,0,0,0,0,0,0,0,0,0,0,0,0,0,0,0,0,0,0,0,1,1,1,0,0,0,1,1,0,0,1,1,0,0,1,1,0,0,1,1,0,0,0,0,0,0,0,0,1,1,0,1,0,0,0,0,0,0,0,1,1,1,0,1,1,1,0,1,1,1,0,1,1,1,0,0,0,0,0,0,0,1,1,1,0,1,0,1,0,0,1,1,1,0,1,1,0,1,0,1,0,1,0,1,0,1,0,1,0,0,0,0,0,0,0,1,0,1,0,1,0,1,1,1,1,1,1,1,1,1,0,0,0,0,0,0,0,0,0,0,0,0,0,0,0,0,0,0,0,0,0,0,0,1,0,1,1,1,1,1,1,1,1,1,1,0,0,0,0,0,0,0,0,0,0,0,0,0,0,0,1,0,0,0,0,0,1,1,0,0,0,0,0,0,1,1,1,1,1,1,1,1,1,1,1,1,1,1,1,1,1,1,1,0,1,1,1,1,1,1,1,1,1,1,1,1,1,1,1,1,1],"width":34,"height":22,"x":0,"y":0,"opacity":1,"visible":true},{"id":6,"name":"spawn-points","type":"objectgroup","objects":[{"id":1,"name":"desk-ceo","point":true,"x":240,"y":176,"width":0,"height":0,"rotation":0,"type":"","visible":true},{"id":2,"name":"desk-table-1","point":true,"x":160,"y":160,"width":0,"height":0,"rotation":0,"type":"","visible":true},{"id":3,"name":"desk-table-2","point":true,"x":176,"y":160,"width":0,"height":0,"rotation":0,"type":"","visible":true},{"id":4,"name":"desk-table-3","point":true,"x":192,"y":160,"width":0,"height":0,"rotation":0,"type":"","visible":true},{"id":5,"name":"desk-table-4","point":true,"x":208,"y":160,"width":0,"height":0,"rotation":0,"type":"","visible":true},{"id":6,"name":"desk-table-5","point":true,"x":160,"y":208,"width":0,"height":0,"rotation":0,"type":"","visible":true},{"id":7,"name":"desk-table-6","point":true,"x":176,"y":208,"width":0,"height":0,"rotation":0,"type":"","visible":true},{"id":8,"name":"desk-table-7","point":true,"x":192,"y":208,"width":0,"height":0,"rotation":0,"type":"","visible":true},{"id":9,"name":"desk-table-8","point":true,"x":208,"y":208,"width":0,"height":0,"rotation":0,"type":"","visible":true},{"id":10,"name":"pc-1","point":true,"x":96,"y":80,"width":0,"height":0,"rotation":0,"type":"","visible":true},{"id":11,"name":"pc-2","point":true,"x":160,"y":80,"width":0,"height":0,"rotation":0,"type":"","visible":true},{"id":12,"name":"pc-3","point":true,"x":224,"y":80,"width":0,"height":0,"rotation":0,"type":"","visible":true},{"id":13,"name":"pc-4","point":true,"x":288,"y":80,"width":0,"height":0,"rotation":0,"type":"","visible":true},{"id":14,"name":"pc-5","point":true,"x":352,"y":80,"width":0,"height":0,"rotation":0,"type":"","visible":true},{"id":15,"name":"pc-6","point":true,"x":48,"y":288,"width":0,"height":0,"rotation":0,"type":"","visible":true},{"id":16,"name":"pc-7","point":true,"x":112,"y":288,"width":0,"height":0,"rotation":0,"type":"","visible":true},{"id":17,"name":"pc-8","point":true,"x":176,"y":288,"width":0,"height":0,"rotation":0,"type":"","visible":true},{"id":18,"name":"pc-9","point":true,"x":336,"y":288,"width":0,"height":0,"rotation":0,"type":"","visible":true},{"id":19,"name":"desk-dean","point":true,"x":432,"y":80,"width":0,"height":0,"rotation":0,"type":"","visible":true},{"id":20,"name":"desk-chang","point":true,"x":480,"y":80,"width":0,"height":0,"rotation":0,"type":"","visible":true},{"id":21,"name":"cafe-seat-1","point":true,"x":432,"y":224,"width":0,"height":0,"rotation":0,"type":"","visible":true},{"id":22,"name":"cafe-seat-2","point":true,"x":432,"y":256,"width":0,"height":0,"rotation":0,"type":"","visible":true},{"id":23,"name":"cafe-seat-3","point":true,"x":448,"y":224,"width":0,"height":0,"rotation":0,"type":"","visible":true},{"id":24,"name":"cafe-seat-4","point":true,"x":448,"y":256,"width":0,"height":0,"rotation":0,"type":"","visible":true},{"id":25,"name":"cafe-stand-coffee","point":true,"x":416,"y":320,"width":0,"height":0,"rotation":0,"type":"","visible":true},{"id":26,"name":"cafe-stand-vending","point":true,"x":464,"y":208,"width":0,"height":0,"rotation":0,"type":"","visible":true},{"id":27,"name":"entrance","point":true,"x":256,"y":320,"width":0,"height":0,"rotation":0,"type":"","visible":true}],"draworder":"topdown","opacity":1,"visible":true,"x":0,"y":0},{"id":7,"name":"zones","type":"objectgroup","objects":[{"id":28,"name":"boardroom","x":272,"y":144,"width":96,"height":80,"rotation":0,"type":"","visible":true},{"id":29,"name":"cafeteria","type":"","x":384,"y":192,"width":128,"height":128,"rotation":0,"visible":true}],"draworder":"topdown","opacity":1,"visible":true,"x":0,"y":0}]}